static/img/general/success.svg

<svg width="73" height="65" viewBox="0 0 73 65" fill="none" xmlns="http://www.w3.org/2000/svg">
<path d="M63.7406 22.0641C63.0627 22.0641 62.5148 22.612 62.5148 23.2898V62.5148H2.45156V2.45156H62.5148V3.67734C62.5148 4.3552 63.0627 4.90312 63.7406 4.90312C64.4184 4.90312 64.9664 4.3552 64.9664 3.67734V0H0V64.9664H64.9664V23.2898C64.9664 22.612 64.4184 22.0641 63.7406 22.0641Z" fill="#59E5C2"/>
<path d="M71.9619 5.2618C71.4826 4.78252 70.7079 4.78252 70.2287 5.2618L33.0961 42.3944L17.0751 26.3734C16.5959 25.8941 15.8212 25.8941 15.3419 26.3734C14.8626 26.8527 14.8626 27.6274 15.3419 28.1067L32.2295 44.9943C32.4685 45.2333 32.7823 45.3534 33.0961 45.3534C33.4099 45.3534 33.7237 45.2333 33.9627 44.9943L71.9619 6.99506C72.4412 6.51578 72.4412 5.74108 71.9619 5.2618Z" fill="#59E5C2"/>
</svg>

<svg width="73" height="65" viewBox="0 0 73 65" fill="none" xmlns="http://www.w3.org/2000/svg"><path d="M63.74 22.064c-.677 0-1.225.548-1.225 1.226v39.225H2.452V2.452h60.063v1.225a1.225 1.225 0 1 0 2.451 0V0H0v64.966h64.966V23.29c0-.678-.548-1.226-1.225-1.226z" fill="#59E5C2"/><path d="M71.962 5.262a1.224 1.224 0 0 0-1.733 0L33.096 42.394l-16.02-16.02a1.224 1.224 0 1 0-1.733 1.733l16.886 16.887a1.222 1.222 0 0 0 1.734 0L71.962 6.995c.48-.48.48-1.254 0-1.733z" fill="#59E5C2"/></svg>
